X: 25309
T: Manannan Beg Mac Y Leir
R: reel
M: 4/4
K: Gmajor
D3E GA B2|E3E D4|D3E GA B2|E3E D4|
A2 AB G2 dB|A2 GE G2 d2|D3E GA B2|E3E D4|
G2 AB d2 ed|A2 GE G2 d2|D3E GA B2|E3E D4|
G2 AB dd ed|A2 GE G2 d2|D3E GA B2|E3E D4||

